svgs/ultimateguitar.svg

<svg width="192" height="192" viewBox="0 0 192 192" fill="none" xmlns="http://www.w3.org/2000/svg">
<path d="M169.064 92.0859C169.266 94.2443 169.209 97.3831 169.209 99.5909C169.304 139.498 136.643 171.912 96.2678 172C55.8966 172.087 23.0875 139.814 23.0001 99.9139C22.9878 90.3144 24.9008 80.81 28.6257 71.9627C32.3506 63.1154 37.812 55.1049 44.6867 48.405L37.288 41.394V20L56.8428 38.8404C68.6926 31.4166 82.4042 27.5045 96.3872 27.5576C110.37 27.6107 124.052 31.627 135.845 39.1406L155.992 20V41.3978L147.925 48.804C156.161 56.9381 162.31 66.9425 165.846 77.9651H149.483C137.388 48.9256 103.765 35.086 74.3836 47.037C44.9982 58.9994 30.9915 92.2265 43.0944 121.27C55.1898 150.302 88.816 164.149 118.198 152.187C136.875 144.587 150.152 127.867 153.173 108.122H105.095L89.8382 92.0859H169.064Z" stroke="black" stroke-width="8" stroke-linejoin="round"/>
</svg>

<svg width="192" height="192" viewBox="0 0 192 192" fill="none" xmlns="http://www.w3.org/2000/svg"><path d="M169.064 92.086c.202 2.158.145 5.297.145 7.505.095 39.907-32.566 72.321-72.941 72.409-40.371.087-73.18-32.186-73.268-72.086a71.796 71.796 0 0 1 21.687-51.509l-7.399-7.011V20l19.555 18.84a73.955 73.955 0 0 1 79.002.3L155.992 20v21.398l-8.067 7.406a71.822 71.822 0 0 1 17.921 29.161h-16.363c-12.095-29.04-45.718-42.879-75.1-30.928-29.385 11.962-43.391 45.19-31.289 74.233 12.096 29.032 45.722 42.879 75.104 30.917 18.677-7.6 31.954-24.32 34.975-44.065h-48.078L89.838 92.086h79.226Z" stroke="#000" stroke-width="8" stroke-linejoin="round"/></svg>
